X: 234
T: Joc de Leagane
O: Romania
F: http://www.youtube.com/watch?v=KjmQ67uRVOA
F: http://www.youtube.com/watch?v=ZNlFSrJqLoM
F: http://www.youtube.com/watch?v=23MWxH28QUw
M: 4/4
L: 1/8
Q: 1/4=180
K: BbDor
D6EF|E6DE|B,4A,2DC|B,8   |A6Bc|B6AG|F6E2  |AGF6|
A6Bc|B6AG|F6E2    |AGF4E2|D6EF|E6DE|B,4A,4|B,8 |



